X:1
T:[ID 2-54a]
C:Urheber unbekannt
C:Datum in der hier transkribierten schriftlichen Quelle: 1767
L:1/8
M:3/4
I:linebreak $
K:D
V:1 treble 
V:1
 D2 D2 D2 | D2 FDAF | d2 Adfa | Tg4 f2 | e2 cAfd | ea (3^gab a2 | (3Bcd c2 B2 | A6 :: A2 A2 A2 |$ %9
 AedcBA | gfedcB |{A} TG4 F2 | Fdce d2 | Ag (3efg f2 | e2 d2 c2 | d6 :| %16
